Extension/src/pages/assets/icons/thumbsup.svg

<svg height="24" viewBox="0 0 24 24" width="24" xmlns="http://www.w3.org/2000/svg"><g fill="none" fill-rule="evenodd"><path d="m0 0h24v24h-24z" fill="#878787" fill-opacity=".01" fill-rule="evenodd"/><path d="m8.52086095 12.7600465c-.06262152-.5082327-.06262152-1.0164654.12524303-1.4611691.25048607-.69882.06262152-4.38350731-.06262152-5.27291459-.06262151-.25411637-.25048606-.63529092-.43835061-.95293638l-.17925468-.36160511c-.2663414-.55930421-.45265335-1.16886847.36711923-1.48073855 2.8805897-1.01646547 3.4441834 1.5246982 3.8199125 3.74821641.1878645.7623491.125243 1.01646547.4383506 1.27058184l.3483031-.31159728c1.0201765-.90742216 2.3147593-1.97545003 3.6594739-1.97545003 1.4402949 0 1.816024.95293638 1.8786455 1.52469821 1.0019443.25411636 1.5655379 1.5246982 1.3150519 2.47763458.7514581.5082327.9393227 1.5246982.6262151 2.3505764.3131076.4447036.9393228 1.6517564.3131076 2.6046928-.5009721.69882-7.5145819 4.5105655-8.3286617 4.8282109-.0626215.4447037-.375729.8258782-.7514581 1.0799946l-1.6281595.9529364c-.75145816.4447036-1.6907809.1905872-2.06651-.5717619l-3.06845429-5.2729146c-.3757291-.7623491-.12524303-1.7152855.56359365-2.1599891l1.69078093-.9529364c.43835062-.2541163.93932275-.2541163 1.37767336-.0635291zm3.97913905 6.7399535-3.97913905-6.7399535" stroke="#4d4d4d" stroke-linecap="round" stroke-linejoin="round" stroke-width="1.5"/></g></svg>

<?xml version="1.0" encoding="UTF-8"?>
<svg width="24px" height="24px" viewBox="0 0 24 24" version="1.1" xmlns="http://www.w3.org/2000/svg" xmlns:xlink="http://www.w3.org/1999/xlink">
    <title>_Icons/_Main (24)/thumbsup</title>
    <g id="Settings" stroke="none" stroke-width="1" fill="none" fill-rule="evenodd">
        <g id="Big-screen" transform="translate(-1372.000000, -1314.000000)">
            <g id="Group-8" transform="translate(0.000000, 1286.000000)">
                <g id="Group-7" transform="translate(603.000000, 20.000000)">
                    <g id="_Web/Buttons/Abris" transform="translate(753.000000, 0.000000)">
                        <g id="Group-4" transform="translate(16.000000, 7.000000)">
                            <g id="_Icons/_Main-(24)/thumbsup" transform="translate(0.000000, 1.000000)">
                                <g id="Atoms/Plates/Transperent" fill="#878787" fill-opacity="0.01" fill-rule="evenodd">
                                    <rect id="Rectangle" style="mix-blend-mode: screen;" x="0" y="0" width="24" height="24"></rect>
                                </g>
                                <path d="M8.52086095,12.7600465 C8.45823943,12.2518138 8.45823943,11.7435811 8.64610398,11.2988774 C8.89659005,10.6000574 8.7087255,6.91537009 8.58348246,6.02596281 C8.52086095,5.77184644 8.3329964,5.39067189 8.14513185,5.07302643 L7.96587717,4.71142132 C7.69953577,4.15211711 7.51322382,3.54255285 8.3329964,3.23068277 C11.2135861,2.2142173 11.7771798,4.75538097 12.1529089,6.97889918 C12.3407734,7.74124828 12.2781519,7.99536465 12.5912595,8.24948102 L12.9395626,7.93788374 C13.9597391,7.03046158 15.2543219,5.96243371 16.5990365,5.96243371 C18.0393314,5.96243371 18.4150605,6.91537009 18.477682,7.48713192 C19.4796263,7.74124828 20.0432199,9.01183012 19.7927339,9.9647665 C20.544192,10.4729992 20.7320566,11.4894647 20.418949,12.3153429 C20.7320566,12.7600465 21.3582718,13.9670993 20.7320566,14.9200357 C20.2310845,15.6188557 13.2174747,19.4306012 12.4033949,19.7482466 C12.3407734,20.1929503 12.0276659,20.5741248 11.6519368,20.8282412 L10.0237773,21.7811776 C9.27231914,22.2258812 8.3329964,21.9717648 7.9572673,21.2094157 L4.88881301,15.9365011 C4.51308391,15.174152 4.76356998,14.2212156 5.45240666,13.776512 L7.14318759,12.8235756 C7.58153821,12.5694593 8.08251034,12.5694593 8.52086095,12.7600465 Z M12.5,19.5 L8.52086095,12.7600465" id="Combined-Shape" stroke="#4D4D4D" stroke-width="1.5" stroke-linecap="round" stroke-linejoin="round"></path>
                            </g>
                        </g>
                    </g>
                </g>
            </g>
        </g>
    </g>
</svg>
